2D/logo/frontier.svg

<?xml version="1.0" encoding="UTF-8" standalone="no"?>
<!-- Created with Inkscape (http://www.inkscape.org/) -->

<svg
   width="77.254181mm"
   height="35.751514mm"
   id="svg22060"
   sodipodi:version="0.32"
   inkscape:version="1.1 (c4e8f9ed74, 2021-05-24)"
   sodipodi:docname="frontier.svg"
   inkscape:output_extension="org.inkscape.output.svg.inkscape"
   version="1.1"
   xmlns:inkscape="http://www.inkscape.org/namespaces/inkscape"
   xmlns:sodipodi="http://sodipodi.sourceforge.net/DTD/sodipodi-0.dtd"
   xmlns="http://www.w3.org/2000/svg"
   xmlns:svg="http://www.w3.org/2000/svg"
   xmlns:rdf="http://www.w3.org/1999/02/22-rdf-syntax-ns#"
   xmlns:cc="http://creativecommons.org/ns#"
   xmlns:dc="http://purl.org/dc/elements/1.1/">
  <defs
     id="defs22062">
    <filter
       inkscape:collect="always"
       id="filter34720"
       x="-0.055224098"
       y="-0.045187412"
       width="1.1104482"
       height="1.0903748">
      <feGaussianBlur
         inkscape:collect="always"
         stdDeviation="3.8786055"
         id="feGaussianBlur34722" />
    </filter>
    <filter
       inkscape:collect="always"
       id="filter34008"
       x="-0.090903872"
       y="-0.070276242"
       width="1.1818077"
       height="1.1405525">
      <feGaussianBlur
         inkscape:collect="always"
         stdDeviation="5.8654354"
         id="feGaussianBlur34010" />
    </filter>
    <filter
       height="1.2902261"
       y="-0.14511305"
       width="1.2225955"
       x="-0.11129773"
       id="filter15894"
       inkscape:collect="always">
      <feGaussianBlur
         id="feGaussianBlur15896"
         stdDeviation="3.6839064"
         inkscape:collect="always" />
    </filter>
    <filter
       id="filter15646"
       inkscape:collect="always"
       x="-0.052438559"
       y="-0.081790426"
       width="1.1048771"
       height="1.1635809">
      <feGaussianBlur
         id="feGaussianBlur15648"
         stdDeviation="2.8062822"
         inkscape:collect="always" />
    </filter>
    <inkscape:perspective
       sodipodi:type="inkscape:persp3d"
       inkscape:vp_x="0 : -426.13602 : 1"
       inkscape:vp_y="0 : 1066.6667 : 0"
       inkscape:vp_z="793.70078 : -426.13602 : 1"
       inkscape:persp3d-origin="396.85039 : -613.22263 : 1"
       id="perspective22068" />
  </defs>
  <sodipodi:namedview
     id="base"
     pagecolor="#ffffff"
     bordercolor="#666666"
     borderopacity="1.0"
     inkscape:pageopacity="0.0"
     inkscape:pageshadow="2"
     inkscape:zoom="0.7"
     inkscape:cx="-237.85714"
     inkscape:cy="120.71429"
     inkscape:document-units="px"
     inkscape:current-layer="layer1"
     showgrid="false"
     inkscape:window-width="2128"
     inkscape:window-height="1128"
     inkscape:window-x="0"
     inkscape:window-y="0"
     inkscape:window-maximized="1"
     inkscape:pagecheckerboard="0" />
  <metadata
     id="metadata22065">
    <rdf:RDF>
      <cc:Work
         rdf:about="">
        <dc:format>image/svg+xml</dc:format>
        <dc:type
           rdf:resource="http://purl.org/dc/dcmitype/StillImage" />
        <dc:title />
        <dc:creator>
          <cc:Agent>
            <dc:title>enigmatic</dc:title>
          </cc:Agent>
        </dc:creator>
        <cc:license
           rdf:resource="https://creativecommons.org/licenses/by/3.0/" />
      </cc:Work>
    </rdf:RDF>
  </metadata>
  <g
     inkscape:label="Ebene 1"
     inkscape:groupmode="layer"
     id="layer1"
     transform="translate(-237.63306,-396.21211)">
    <g
       id="g35013"
       transform="matrix(0.5886226,0,0,0.5886226,-64.829833,-1301.7646)"
       inkscape:export-filename="/home/brutkasten/Dokumente/naev/frontier_logo.png"
       inkscape:export-xdpi="90"
       inkscape:export-ydpi="90">
      <path
         sodipodi:nodetypes="cccc"
         id="path33904"
         d="m 745.93936,2890.0142 c -5.78174,6.1291 -167.35379,209.279 -169.5137,211.5235 5.61844,-0.01 241.44068,1.0942 331.00262,0.5231 -3.22723,-3.1736 -109.77686,-141.7609 -161.48892,-212.0466 z"
         style="fill:#c8ab37;fill-rule:evenodd;stroke:none;stroke-width:2.6;stroke-linecap:butt;stroke-linejoin:miter;stroke-miterlimit:4;stroke-dasharray:none;stroke-opacity:1" />
      <path
         transform="matrix(-2.3251458,0,0,-2.3251458,2831.3625,6437.1631)"
         sodipodi:nodetypes="cccc"
         id="path33906"
         d="m 833.63839,1437.1518 c 2.19808,2.6364 4.2483,5.3924 6.37476,8.0864 6.06115,7.8455 12.08498,15.72 18.12794,23.5795 9.73622,12.7676 19.43186,25.5661 29.0725,38.406 3.04381,4.0573 6.06822,8.129 9.08105,12.2094 3.95291,-4.7665 7.80267,-9.6175 11.6958,-14.4327 16.20287,-20.25 32.38021,-40.5205 48.5668,-60.7835 1.83234,-2.2983 3.67374,-4.5894 5.51865,-6.8776 -19.28325,-0.071 -38.56649,-0.1536 -57.84982,-0.1962 -19.55156,-0.02 -39.10319,-0.085 -58.65473,-0.04 -3.97765,0.016 -7.9553,0.032 -11.93295,0.048 z"
         style="opacity:0.883234;fill:#f2bf0b;fill-opacity:1;fill-rule:evenodd;stroke:none;stroke-width:1px;stroke-linecap:butt;stroke-linejoin:miter;stroke-opacity:1;filter:url(#filter15646)" />
      <path
         id="path33990"
         d="m 742.46212,2904.2749 c 2.99287,1.3605 6.78224,7.4893 9.8995,10.6066 0.7071,0.7071 1.41421,1.4142 2.12132,2.1213 2.13449,2.1345 4.34019,7.4613 4.94974,9.8995 0.87074,3.4829 3.18279,7.5435 4.94975,9.8995 2.62612,3.5015 3.45127,7.6939 6.36396,10.6066 3.5025,3.5025 5.21125,6.3284 7.77818,10.6066 2.36704,3.945 4.45037,6.7794 6.36396,10.6066 1.59894,3.1979 5.98373,5.2766 8.48528,7.7781 2.11137,2.1114 4.20724,4.1719 5.65685,7.0711 1.35827,2.7165 3.94195,5.0555 5.65686,8.4853 1.79359,3.5872 5.30053,6.3584 7.07107,9.8995 1.32018,2.6404 4.87855,5.5145 6.36396,8.4853 1.71513,3.4302 4.93974,7.051 6.36396,9.8995 2.46735,4.9347 5.78958,8.2351 8.48528,12.7279 2.044,3.4067 5.25258,6.532 7.77817,9.8995 2.5348,3.3797 4.9888,5.7349 7.07107,9.8995 1.8975,3.795 5.56867,6.9535 7.77818,9.8995 3.00959,4.0128 6.43351,6.4335 9.89949,9.8995 2.4248,2.4248 5.07811,6.4923 7.07107,8.4852 3.18373,3.1838 4.62634,6.6399 7.07107,9.8995 2.51375,3.3517 5.68198,6.3891 8.48528,9.1924 3.71606,-3.1696 5.79344,-1.2856 9.19239,-2.8284 -2.68031,-2.0102 -6.04836,-5.0116 -7.65686,-7.6924 -1.868,-3.1133 -3.65227,-7.3045 -4.94975,-9.8995 -1.89894,-3.7979 -3.68935,-8.6035 -7.19238,-12.1066 -4.00207,-4.002 -7.82247,-8.5295 -12.02082,-12.7279 -3.42668,-3.4267 -6.03841,-8.7583 -8.48528,-12.0208 -3.09055,-4.1208 -5.03554,-8.5711 -8.48528,-12.0208 -2.95374,-2.9538 -4.41091,-7.2394 -7.07107,-9.8995 -2.26488,-2.2649 -3.9804,-5.1324 -5.65685,-8.4853 -1.69145,-3.3829 -4.32887,-6.5364 -5.65686,-9.1924 -1.49756,-2.9951 -4.63898,-6.0532 -7.07107,-8.4853 -3.25888,-3.2589 -5.27024,-7.2627 -7.77817,-10.6066 -2.52419,-3.3656 -5.70132,-7.1155 -7.77818,-9.1924 -2.38142,-2.3814 -4.48458,-4.4241 -7.07106,-6.3639 -2.43633,-1.8273 -4.34545,-4.4483 -5.65686,-7.0711 -1.0915,-2.183 -4.36899,-5.7832 -6.36396,-7.7782 -2.73662,-2.7366 -4.24004,-6.3587 -5.65685,-9.1924 -1.40942,-2.8188 -3.46069,-5.582 -5.65686,-7.7781 -2.56172,-2.5618 -5.25487,-8.2868 -7.07106,-11.3137 -1.91163,-3.1861 -4.2124,-4.9195 -6.36397,-7.0711 -2.16659,-2.1666 -4.90446,-3.4903 -7.07106,-5.6569 -1.98233,-1.9823 -4.10804,-4.2988 -5.65686,-6.3639 -2.51257,-3.3501 -4.85655,-4.8566 -6.36396,-6.364 -1.11803,-1.118 -1.5341,2.7746 -2.12132,4.2427 z"
         style="fill:#ffe680;fill-rule:evenodd;stroke:none;stroke-width:1px;stroke-linecap:butt;stroke-linejoin:miter;stroke-opacity:1;filter:url(#filter34008)"
         sodipodi:nodetypes="cssssssssssssssssssssccssssssssssssssssssssssc" />
      <path
         sodipodi:nodetypes="csssssssssssssssssssssssssssssccssssssc"
         id="path34658"
         d="m 751.58579,2895.8475 c 4.58483,3.4438 4.64566,9.7086 2,15 -2.29399,4.5879 -4.12188,6.2437 -6,10 -1.51083,3.0216 -7.04224,8.0422 -9,10 -3.80047,3.8004 -6.18879,11.2517 -9,15 -3.14238,4.1898 -5.13419,7.1342 -8,10 -3.68055,3.6805 -5.58703,9.587 -9,13 -4.54755,4.5475 -6.75986,9.7598 -11,14 -3.4431,3.4431 -5.58118,6.5811 -9,10 -3.51818,3.5181 -6.46046,8.2806 -10,13 -2.45506,3.2734 -4.97984,10.9193 -6,15 -1.11303,4.4521 -6.0434,10.0578 -9,14 -3.52748,4.7033 -7.11687,8.2337 -10,14 -2.40262,4.8052 -7.87725,10.8772 -11,14 -3.86573,3.8657 -6.50646,8.3419 -10,13 -3.23559,4.3141 -10.19159,8.1916 -13,11 -3.99964,3.9996 -4.20421,8.1531 -8,11 -3.62214,2.7166 -7.82644,1.9566 -12,3 -4.29068,1.0726 -9.13282,1 -14,1 -5.94252,0 -0.66109,-8.6778 0,-10 2.26148,-4.523 5.13892,-9.1853 8,-13 2.69244,-3.5899 4.49067,-6.6543 7,-10 3.04905,-4.0654 5.98863,-7.9887 9,-11 3.25754,-3.2576 6.67645,-6.7574 11,-10 3.83352,-2.8752 5.41213,-6.8243 7,-10 2.96241,-5.9248 3.45096,-7.451 8,-12 3.39234,-3.3924 5.95444,-8.2726 8,-11 2.83088,-3.7745 4.04034,-7.0202 10,-10 4.76228,-2.3812 6.86767,-6.7354 9,-11 1.62577,-3.2516 6.24936,-4.4988 8,-8 1.75979,-3.5196 4.84954,-7.1328 7,-10 10.21897,-10.3028 5.18208,-7.6778 15.58579,-18.8284 1.75153,-3.5031 5.22907,-5.5221 7.64644,-7.9394 3.62461,-3.6246 5.54108,-5.6073 7.35356,-9.2322 2.34569,-4.6914 6.99144,-8.5773 9.41421,-11 3.42252,-3.4226 5.55319,-7.5532 8,-10 4.00723,-4.0073 4.96737,-5.2256 10,-9 4.38555,-3.2892 9.403,-5.403 12,-8 1.41421,-1.4142 0,-4 0,-6 z"
         style="fill:#ff7f2a;fill-rule:evenodd;stroke:none;stroke-width:1px;stroke-linecap:butt;stroke-linejoin:miter;stroke-opacity:1;filter:url(#filter34720)" />
      <path
         sodipodi:nodetypes="csssssccc"
         style="fill:#ffe680;fill-rule:evenodd;stroke:none;stroke-width:1px;stroke-linecap:butt;stroke-linejoin:miter;stroke-opacity:1;filter:url(#filter15894)"
         d="m 969.59934,1402.1489 c -2.29323,0 -20.05534,13.1725 -22.38135,13.1725 -2.02101,0 -31.43197,25.4244 -33.11085,26.6836 -1.85083,1.3881 -2.64616,3.7176 -4.28571,5.3571 -1.43408,1.4341 -3.48118,2.0752 -5,3.2143 -1.61215,1.2091 -11.38974,8.0132 -11.38974,10.2052 0,3.9961 8.58178,-0.5131 11.38974,2.2948 38.81222,-10.1743 58.18666,-21.2483 68.04921,-51.2736 -5.64661,-4.219 -0.62503,-4.0879 -3.2713,-9.6539 z"
         id="path34040"
         transform="matrix(-0.00974856,1.7436371,-1.6056351,-0.008977,3099.1056,1356.9357)" />
      <path
         sodipodi:nodetypes="cccc"
         id="path33912"
         d="m 746.59826,2890.7421 c -5.78175,6.1292 -167.35379,209.2789 -169.5137,211.5234 5.61826,-0.01 241.44049,1.0943 331.00244,0.5231 -3.22705,-3.1735 -109.77667,-141.761 -161.48874,-212.0465 z"
         style="fill:none;fill-rule:evenodd;stroke:#000000;stroke-width:7.80545;stroke-linecap:butt;stroke-linejoin:miter;stroke-miterlimit:4;stroke-dasharray:none;stroke-opacity:1" />
      <path
         style="fill:#000000;fill-rule:evenodd;stroke:#000000;stroke-width:0.435338px;stroke-linecap:butt;stroke-linejoin:miter;stroke-opacity:1"
         d="m 645.56349,3004.229 c -17.71292,3.1651 -165.12266,54.4655 -124.42244,66.6562 345.53372,85.673 738.02765,-166.6591 282.1413,-119.9557 2.59135,4.8043 13.30062,18.6404 19.202,16.627 304.95585,47.7039 -376.85643,144.3023 -192.00612,55.9462"
         id="path29925"
         sodipodi:nodetypes="ccccc" />
      <path
         sodipodi:nodetypes="ccc"
         id="path34042"
         d="m 853.01341,2958.6215 c 103.52535,9.5979 126.5821,32.732 8.58622,87.7935 156.91717,-32.555 181.01897,-103.9532 -8.58622,-87.7935 z"
         style="fill:#333333;fill-rule:evenodd;stroke:#000000;stroke-width:1px;stroke-linecap:butt;stroke-linejoin:miter;stroke-opacity:1" />
      <path
         sodipodi:nodetypes="ccc"
         id="path34724"
         d="m 632.86057,3015.9978 c -136.52467,53.643 -4.06237,56.5685 7.15251,60.6165 -170.2727,-3.2018 -116.97708,-23.6426 -7.15251,-60.6165 z"
         style="fill:#333333;fill-rule:evenodd;stroke:#000000;stroke-width:1px;stroke-linecap:butt;stroke-linejoin:miter;stroke-opacity:1" />
    </g>
  </g>
</svg>

<?xml version="1.0" encoding="UTF-8" standalone="no"?>
<!-- Created with Inkscape (http://www.inkscape.org/) -->

<svg
   xmlns:dc="http://purl.org/dc/elements/1.1/"
   xmlns:cc="http://creativecommons.org/ns#"
   xmlns:rdf="http://www.w3.org/1999/02/22-rdf-syntax-ns#"
   xmlns:svg="http://www.w3.org/2000/svg"
   xmlns="http://www.w3.org/2000/svg"
   xmlns:sodipodi="http://sodipodi.sourceforge.net/DTD/sodipodi-0.dtd"
   xmlns:inkscape="http://www.inkscape.org/namespaces/inkscape"
   width="210mm"
   height="297mm"
   id="svg22060"
   sodipodi:version="0.32"
   inkscape:version="0.92.4 5da689c313, 2019-01-14"
   sodipodi:docname="frontier.svg"
   inkscape:output_extension="org.inkscape.output.svg.inkscape"
   version="1.1">
  <defs
     id="defs22062">
    <filter
       inkscape:collect="always"
       id="filter34720">
      <feGaussianBlur
         inkscape:collect="always"
         stdDeviation="3.8786055"
         id="feGaussianBlur34722" />
    </filter>
    <filter
       inkscape:collect="always"
       id="filter34008">
      <feGaussianBlur
         inkscape:collect="always"
         stdDeviation="5.8654354"
         id="feGaussianBlur34010" />
    </filter>
    <filter
       height="1.5392518"
       y="-0.26962588"
       width="1.3821931"
       x="-0.19109657"
       id="filter15894"
       inkscape:collect="always">
      <feGaussianBlur
         id="feGaussianBlur15896"
         stdDeviation="3.6839064"
         inkscape:collect="always" />
    </filter>
    <filter
       id="filter15646"
       inkscape:collect="always">
      <feGaussianBlur
         id="feGaussianBlur15648"
         stdDeviation="2.8062822"
         inkscape:collect="always" />
    </filter>
    <inkscape:perspective
       sodipodi:type="inkscape:persp3d"
       inkscape:vp_x="0 : 561.25983 : 1"
       inkscape:vp_y="0 : 1066.6667 : 0"
       inkscape:vp_z="793.70078 : 561.25983 : 1"
       inkscape:persp3d-origin="396.85039 : 374.17322 : 1"
       id="perspective22068" />
  </defs>
  <sodipodi:namedview
     id="base"
     pagecolor="#ffffff"
     bordercolor="#666666"
     borderopacity="1.0"
     inkscape:pageopacity="0.0"
     inkscape:pageshadow="2"
     inkscape:zoom="0.7"
     inkscape:cx="280.86858"
     inkscape:cy="516.91233"
     inkscape:document-units="px"
     inkscape:current-layer="layer1"
     showgrid="false"
     inkscape:window-width="1916"
     inkscape:window-height="1014"
     inkscape:window-x="2"
     inkscape:window-y="64"
     inkscape:window-maximized="1" />
  <metadata
     id="metadata22065">
    <rdf:RDF>
      <cc:Work
         rdf:about="">
        <dc:format>image/svg+xml</dc:format>
        <dc:type
           rdf:resource="http://purl.org/dc/dcmitype/StillImage" />
        <dc:title></dc:title>
        <dc:creator>
          <cc:Agent>
            <dc:title>enigmatic</dc:title>
          </cc:Agent>
        </dc:creator>
        <cc:license
           rdf:resource="https://creativecommons.org/licenses/by/3.0/" />
      </cc:Work>
    </rdf:RDF>
  </metadata>
  <g
     inkscape:label="Ebene 1"
     inkscape:groupmode="layer"
     id="layer1">
    <g
       id="g35013"
       transform="matrix(0.5886226,0,0,0.5886226,-64.829833,-1301.7646)"
       inkscape:export-filename="/home/brutkasten/Dokumente/naev/frontier_logo.png"
       inkscape:export-xdpi="90"
       inkscape:export-ydpi="90">
      <path
         sodipodi:nodetypes="cccc"
         id="path33904"
         d="M 745.93936,2890.0142 C 740.15762,2896.1433 578.58557,3099.2932 576.42566,3101.5377 C 582.0441,3101.5287 817.86634,3102.6319 907.42828,3102.0608 C 904.20105,3098.8872 797.65142,2960.2999 745.93936,2890.0142 z"
         style="fill:#c8ab37;fill-rule:evenodd;stroke:none;stroke-width:2.5999999;stroke-linecap:butt;stroke-linejoin:miter;stroke-miterlimit:4;stroke-dasharray:none;stroke-opacity:1" />
      <path
         transform="matrix(-2.3251458,0,0,-2.3251458,2831.3625,6437.1631)"
         sodipodi:nodetypes="cccc"
         id="path33906"
         d="M 833.63839,1437.1518 C 835.83647,1439.7882 837.88669,1442.5442 840.01315,1445.2382 C 846.0743,1453.0837 852.09813,1460.9582 858.14109,1468.8177 C 867.87731,1481.5853 877.57295,1494.3838 887.21359,1507.2237 C 890.2574,1511.281 893.28181,1515.3527 896.29464,1519.4331 C 900.24755,1514.6666 904.09731,1509.8156 907.99044,1505.0004 C 924.19331,1484.7504 940.37065,1464.4799 956.55724,1444.2169 C 958.38958,1441.9186 960.23098,1439.6275 962.07589,1437.3393 C 942.79264,1437.2683 923.5094,1437.1857 904.22607,1437.1431 C 884.67451,1437.1227 865.12288,1437.0581 845.57134,1437.1034 C 841.59369,1437.1195 837.61604,1437.1357 833.63839,1437.1518 z"
         style="opacity:0.88323352;fill:#f2bf0b;fill-opacity:1;fill-rule:evenodd;stroke:none;stroke-width:1px;stroke-linecap:butt;stroke-linejoin:miter;stroke-opacity:1;filter:url(#filter15646)" />
      <path
         id="path33990"
         d="M 742.46212,2904.2749 C 745.45499,2905.6354 749.24436,2911.7642 752.36162,2914.8815 C 753.06872,2915.5886 753.77583,2916.2957 754.48294,2917.0028 C 756.61743,2919.1373 758.82313,2924.4641 759.43268,2926.9023 C 760.30342,2930.3852 762.61547,2934.4458 764.38243,2936.8018 C 767.00855,2940.3033 767.8337,2944.4957 770.74639,2947.4084 C 774.24889,2950.9109 775.95764,2953.7368 778.52457,2958.015 C 780.89161,2961.96 782.97494,2964.7944 784.88853,2968.6216 C 786.48747,2971.8195 790.87226,2973.8982 793.37381,2976.3997 C 795.48518,2978.5111 797.58105,2980.5716 799.03066,2983.4708 C 800.38893,2986.1873 802.97261,2988.5263 804.68752,2991.9561 C 806.48111,2995.5433 809.98805,2998.3145 811.75859,3001.8556 C 813.07877,3004.496 816.63714,3007.3701 818.12255,3010.3409 C 819.83768,3013.7711 823.06229,3017.3919 824.48651,3020.2404 C 826.95386,3025.1751 830.27609,3028.4755 832.97179,3032.9683 C 835.01579,3036.375 838.22437,3039.5003 840.74996,3042.8678 C 843.28476,3046.2475 845.73876,3048.6027 847.82103,3052.7673 C 849.71853,3056.5623 853.3897,3059.7208 855.59921,3062.6668 C 858.6088,3066.6796 862.03272,3069.1003 865.4987,3072.5663 C 867.9235,3074.9911 870.57681,3079.0586 872.56977,3081.0515 C 875.7535,3084.2353 877.19611,3087.6914 879.64084,3090.951 C 882.15459,3094.3027 885.32282,3097.3401 888.12612,3100.1434 C 891.84218,3096.9738 893.91956,3098.8578 897.31851,3097.315 C 894.6382,3095.3048 891.27015,3092.3034 889.66165,3089.6226 C 887.79365,3086.5093 886.00938,3082.3181 884.7119,3079.7231 C 882.81296,3075.9252 881.02255,3071.1196 877.51952,3067.6165 C 873.51745,3063.6145 869.69705,3059.087 865.4987,3054.8886 C 862.07202,3051.4619 859.46029,3046.1303 857.01342,3042.8678 C 853.92287,3038.747 851.97788,3034.2967 848.52814,3030.847 C 845.5744,3027.8932 844.11723,3023.6076 841.45707,3020.9475 C 839.19219,3018.6826 837.47667,3015.8151 835.80022,3012.4622 C 834.10877,3009.0793 831.47135,3005.9258 830.14336,3003.2698 C 828.6458,3000.2747 825.50438,2997.2166 823.07229,2994.7845 C 819.81341,2991.5256 817.80205,2987.5218 815.29412,2984.1779 C 812.76993,2980.8123 809.5928,2977.0624 807.51594,2974.9855 C 805.13452,2972.6041 803.03136,2970.5614 800.44488,2968.6216 C 798.00855,2966.7943 796.09943,2964.1733 794.78802,2961.5505 C 793.69652,2959.3675 790.41903,2955.7673 788.42406,2953.7723 C 785.68744,2951.0357 784.18402,2947.4136 782.76721,2944.5799 C 781.35779,2941.7611 779.30652,2938.9979 777.11035,2936.8018 C 774.54863,2934.24 771.85548,2928.515 770.03929,2925.4881 C 768.12766,2922.302 765.82689,2920.5686 763.67532,2918.417 C 761.50873,2916.2504 758.77086,2914.9267 756.60426,2912.7601 C 754.62193,2910.7778 752.49622,2908.4613 750.9474,2906.3962 C 748.43483,2903.0461 746.09085,2901.5396 744.58344,2900.0322 C 743.46541,2898.9142 743.04934,2902.8068 742.46212,2904.2749 z"
         style="fill:#ffe680;fill-rule:evenodd;stroke:none;stroke-width:1px;stroke-linecap:butt;stroke-linejoin:miter;stroke-opacity:1;filter:url(#filter34008)"
         sodipodi:nodetypes="cssssssssssssssssssssccssssssssssssssssssssssc" />
      <path
         sodipodi:nodetypes="csssssssssssssssssssssssssssssccssssssc"
         id="path34658"
         d="M 751.58579,2895.8475 C 756.17062,2899.2913 756.23145,2905.5561 753.58579,2910.8475 C 751.2918,2915.4354 749.46391,2917.0912 747.58579,2920.8475 C 746.07496,2923.8691 740.54355,2928.8897 738.58579,2930.8475 C 734.78532,2934.6479 732.397,2942.0992 729.58579,2945.8475 C 726.44341,2950.0373 724.4516,2952.9817 721.58579,2955.8475 C 717.90524,2959.528 715.99876,2965.4345 712.58579,2968.8475 C 708.03824,2973.395 705.82593,2978.6073 701.58579,2982.8475 C 698.14269,2986.2906 696.00461,2989.4286 692.58579,2992.8475 C 689.06761,2996.3656 686.12533,3001.1281 682.58579,3005.8475 C 680.13073,3009.1209 677.60595,3016.7668 676.58579,3020.8475 C 675.47276,3025.2996 670.54239,3030.9053 667.58579,3034.8475 C 664.05831,3039.5508 660.46892,3043.0812 657.58579,3048.8475 C 655.18317,3053.6527 649.70854,3059.7247 646.58579,3062.8475 C 642.72006,3066.7132 640.07933,3071.1894 636.58579,3075.8475 C 633.3502,3080.1616 626.3942,3084.0391 623.58579,3086.8475 C 619.58615,3090.8471 619.38158,3095.0006 615.58579,3097.8475 C 611.96365,3100.5641 607.75935,3099.8041 603.58579,3100.8475 C 599.29511,3101.9201 594.45297,3101.8475 589.58579,3101.8475 C 583.64327,3101.8475 588.9247,3093.1697 589.58579,3091.8475 C 591.84727,3087.3245 594.72471,3082.6622 597.58579,3078.8475 C 600.27823,3075.2576 602.07646,3072.1932 604.58579,3068.8475 C 607.63484,3064.7821 610.57442,3060.8588 613.58579,3057.8475 C 616.84333,3054.5899 620.26224,3051.0901 624.58579,3047.8475 C 628.41931,3044.9723 629.99792,3041.0232 631.58579,3037.8475 C 634.5482,3031.9227 635.03675,3030.3965 639.58579,3025.8475 C 642.97813,3022.4551 645.54023,3017.5749 647.58579,3014.8475 C 650.41667,3011.073 651.62613,3007.8273 657.58579,3004.8475 C 662.34807,3002.4663 664.45346,2998.1121 666.58579,2993.8475 C 668.21156,2990.5959 672.83515,2989.3487 674.58579,2985.8475 C 676.34558,2982.3279 679.43533,2978.7147 681.58579,2975.8475 C 691.80476,2965.5447 686.76787,2968.1697 697.17158,2957.0191 C 698.92311,2953.516 702.40065,2951.497 704.81802,2949.0797 C 708.44263,2945.4551 710.3591,2943.4724 712.17158,2939.8475 C 714.51727,2935.1561 719.16302,2931.2702 721.58579,2928.8475 C 725.00831,2925.4249 727.13898,2921.2943 729.58579,2918.8475 C 733.59302,2914.8402 734.55316,2913.6219 739.58579,2909.8475 C 743.97134,2906.5583 748.98879,2904.4445 751.58579,2901.8475 C 753,2900.4333 751.58579,2897.8475 751.58579,2895.8475 z"
         style="fill:#ff7f2a;fill-rule:evenodd;stroke:none;stroke-width:1px;stroke-linecap:butt;stroke-linejoin:miter;stroke-opacity:1;filter:url(#filter34720)" />
      <path
         sodipodi:nodetypes="csssssccc"
         style="fill:#ffe680;fill-rule:evenodd;stroke:none;stroke-width:1px;stroke-linecap:butt;stroke-linejoin:miter;stroke-opacity:1;filter:url(#filter15894)"
         d="M 969.59934,1402.1489 C 967.30611,1402.1489 949.544,1415.3214 947.21799,1415.3214 C 945.19698,1415.3214 915.78602,1440.7458 914.10714,1442.005 C 912.25631,1443.3931 911.46098,1445.7226 909.82143,1447.3621 C 908.38735,1448.7962 906.34025,1449.4373 904.82143,1450.5764 C 903.20928,1451.7855 893.43169,1458.5896 893.43169,1460.7816 C 893.43169,1464.7777 902.01347,1460.2685 904.82143,1463.0764 C 943.63365,1452.9021 963.00809,1441.8281 972.87064,1411.8028 C 967.22403,1407.5838 972.24561,1407.7149 969.59934,1402.1489 z"
         id="path34040"
         transform="matrix(-9.7485576e-3,1.7436371,-1.6056351,-8.9769974e-3,3099.1056,1356.9357)" />
      <path
         sodipodi:nodetypes="cccc"
         id="path33912"
         d="M 746.59826,2890.7421 C 740.81651,2896.8713 579.24447,3100.021 577.08456,3102.2655 C 582.70282,3102.2565 818.52505,3103.3598 908.087,3102.7886 C 904.85995,3099.6151 798.31033,2961.0276 746.59826,2890.7421 z"
         style="fill:none;fill-rule:evenodd;stroke:#000000;stroke-width:7.80544853;stroke-linecap:butt;stroke-linejoin:miter;stroke-miterlimit:4;stroke-dasharray:none;stroke-opacity:1" />
      <path
         style="fill:#000000;fill-rule:evenodd;stroke:#000000;stroke-width:0.43533835px;stroke-linecap:butt;stroke-linejoin:miter;stroke-opacity:1"
         d="M 645.56349,3004.229 C 627.85057,3007.3941 480.44083,3058.6945 521.14105,3070.8852 C 866.67477,3156.5582 1259.1687,2904.2261 803.28235,2950.9295 C 805.8737,2955.7338 816.58297,2969.5699 822.48435,2967.5565 C 1127.4402,3015.2604 445.62792,3111.8588 630.47823,3023.5027"
         id="path29925"
         sodipodi:nodetypes="ccccc" />
      <path
         sodipodi:nodetypes="ccc"
         id="path34042"
         d="M 853.01341,2958.6215 C 956.53876,2968.2194 979.59551,2991.3535 861.59963,3046.415 C 1018.5168,3013.86 1042.6186,2942.4618 853.01341,2958.6215 z"
         style="fill:#333333;fill-rule:evenodd;stroke:#000000;stroke-width:1px;stroke-linecap:butt;stroke-linejoin:miter;stroke-opacity:1" />
      <path
         sodipodi:nodetypes="ccc"
         id="path34724"
         d="M 632.86057,3015.9978 C 496.3359,3069.6408 628.7982,3072.5663 640.01308,3076.6143 C 469.74038,3073.4125 523.036,3052.9717 632.86057,3015.9978 z"
         style="fill:#333333;fill-rule:evenodd;stroke:#000000;stroke-width:1px;stroke-linecap:butt;stroke-linejoin:miter;stroke-opacity:1" />
    </g>
  </g>
</svg>
